svgs/regular/cassette-betamax.svg

<svg xmlns="http://www.w3.org/2000/svg" viewBox="0 0 576 512"><!--! Font Awesome Pro 6.6.0 by @fontawesome - https://fontawesome.com License - https://fontawesome.com/license (Commercial License) Copyright 2024 Fonticons, Inc. --><path d="M48 416l0-256 480 0 0 256c0 8.8-7.2 16-16 16L64 432c-8.8 0-16-7.2-16-16zM64 32C28.7 32 0 60.7 0 96L0 416c0 35.3 28.7 64 64 64l448 0c35.3 0 64-28.7 64-64l0-320c0-35.3-28.7-64-64-64L64 32zM368 256l80 0 0 80-80 0 0-80zm-48-16l0 112c0 17.7 14.3 32 32 32l112 0c17.7 0 32-14.3 32-32l0-112c0-17.7-14.3-32-32-32l-112 0c-17.7 0-32 14.3-32 32zm-136 0a56 56 0 1 1 0 112 56 56 0 1 1 0-112zm0 160a104 104 0 1 0 0-208 104 104 0 1 0 0 208zm0-80a24 24 0 1 0 0-48 24 24 0 1 0 0 48z"/></svg>

<svg xmlns="http://www.w3.org/2000/svg" viewBox="0 0 576 512"><!--! Font Awesome Pro 6.4.0 by @fontawesome - https://fontawesome.com License - https://fontawesome.com/license (Commercial License) Copyright 2023 Fonticons, Inc. --><path d="M48 416V160H528V416c0 8.8-7.2 16-16 16H64c-8.8 0-16-7.2-16-16zM64 32C28.7 32 0 60.7 0 96V416c0 35.3 28.7 64 64 64H512c35.3 0 64-28.7 64-64V96c0-35.3-28.7-64-64-64H64zM368 256h80v80H368V256zm-48-16V352c0 17.7 14.3 32 32 32H464c17.7 0 32-14.3 32-32V240c0-17.7-14.3-32-32-32H352c-17.7 0-32 14.3-32 32zm-136 0a56 56 0 1 1 0 112 56 56 0 1 1 0-112zm0 160a104 104 0 1 0 0-208 104 104 0 1 0 0 208zm0-80a24 24 0 1 0 0-48 24 24 0 1 0 0 48z"/></svg>
